!!!!SEGMENT:49Kyoufunoichiya_c.krn
!!!OTL:恐怖の一夜（悪夢）
!!!OPR:Eiga Banso Kyokusyu,jidai-geki,kouhen
!!!YOY:1928
!!!ONB:Kaii
**kern
*clefG2
*k[]
*C:
*M4/4
*met(c)
=1
2r
2e
=2
2g
2cc
=3
4ee
4gg
4ccc
4eee
=4
4.ggg
8ddd
4ddd
4ddd
=5
4.eee
8ccc
4ccc
4r
=6
4.ggg
8ddd
4ddd
4ddd
=7
4.eee
8ccc
4ccc
4r
=8
2r
2cc
=9
2e
2a
=10
4cc
4ee
4aa
4ccc
=11
4.eee
8bb
4bb
4bb
=12
4.ccc
8aa
4aa
4r
=13
4.ccc
8aa
4aa
4ddd
=14
4gg
4r
4r
(16ffLL
16ee-X
16ff
16ee-JJ
=15
8dd)
8r
(16ee-XLL
16dd
16ee-
16ddJJ)
8cc
8r
(16ddLL
16cc
16dd
16ccJJ
=16
8b)
8r
8gg
8r
8g
8r
(16ffLL
16ee-X
16ff
16ee-JJ
=17
8dd)
8r
(16ee-XLL
16dd
16ee-
16ddJJ
8cc)
8r
(16ddLL
16cc
16dd
16ccJJ
=18
8b)
8r
8gg
8r
8g
8r
8ee-X
8r
=19
8dd
8r
8gg
8r
8e
8r
8ee-X
8r
=20
8dd
8r
4r
8g
8r
4r
=21
8g
8r
4r
(4e
4g)
=22
(2cc
4b
4a)
=23
(2b
4d
4f)
=24
(2b
4a
4f)
=25
(2g
4e
4g)
=26
(2gg
4ff
4ee)
!!linebreak:original
=27
(2dd
4cc
4a)
=28
(2g
4f
4d)
=29
8cccL
8ccc'
8gg'
8ee'J
8ccL
8cc'
8g'
8e'J
=30
8cc'
8r
4r
8cc'
8r
4r
=31
8cc'
8r
4r
2r
==
*-
!!!ENC: Yukiko Yoden
!!!END: 2023/06/11
